lib/brands/icons/saucelabs.svg

<svg xmlns="http://www.w3.org/2000/svg" fill="none" aria-hidden="true" viewBox="0 0 48 48"><g id="saucelabs-Icon"><g id="Group"><path id="Vector" fill="#E12826" d="M10.3982 29.2091L19.99 29.2136L14.6178 39.3458C6.8678 34.6144 3.85906 24.8497 7.60184 16.5772C11.6978 7.52585 22.3543 3.50881 31.4056 7.60382L14.1419 24.8676H29.5127L18.2091 36.2833L22.8768 27.4766H11.6924C11.3778 26.3446 11.2174 25.1741 11.2174 23.9991C11.2263 16.9446 16.9427 11.2274 23.9971 11.2184C24.1477 11.2184 24.2956 11.2283 24.4453 11.2283L26.0908 9.58007C25.4079 9.47969 24.7177 9.4304 24.0267 9.4304C15.9944 9.4304 9.43828 15.9659 9.43828 23.9991C9.4338 25.78 9.75914 27.5465 10.3982 29.2091ZM33.3774 8.65155C41.1327 13.3829 44.1424 23.153 40.3951 31.4282C36.2965 40.4778 25.6382 44.4921 16.5886 40.3935L33.7207 23.1297H18.3077L29.7852 11.7069L25.1157 20.5225H36.2983C36.7787 22.1394 36.7787 23.9991 36.7787 23.9991C36.7697 31.0536 31.0525 36.7699 23.998 36.7789C23.8295 36.7789 23.6619 36.7672 23.4943 36.7672L21.8649 38.4128C22.5712 38.5158 23.2846 38.5678 23.998 38.5678C25.7897 38.5687 27.566 38.2398 29.2376 37.5963C36.7402 34.7085 40.4812 26.2864 37.5934 18.7838H28.0043L33.3774 8.65155Z"/></g></g></svg>

<svg xmlns="http://www.w3.org/2000/svg" fill="none" aria-hidden="true" viewBox="0 0 48 48"><path fill="#E12826" d="m10.398 29.21 9.592.004-5.372 10.132C6.868 34.614 3.859 24.85 7.602 16.577 11.698 7.526 22.354 3.51 31.406 7.604L14.142 24.868h15.37L18.21 36.283l4.668-8.806H11.692a12.991 12.991 0 0 1-.475-3.478c.01-7.054 5.726-12.772 12.78-12.78.15 0 .299.01.448.01l1.646-1.649c-.683-.1-1.373-.15-2.064-.15-8.033 0-14.589 6.536-14.589 14.57a14.42 14.42 0 0 0 .96 5.21Zm22.98-20.558c7.755 4.73 10.764 14.501 7.017 22.776-4.099 9.05-14.757 13.064-23.806 8.966L33.72 23.13H18.308l11.477-11.423-4.67 8.816h11.183c.48 1.616.48 3.476.48 3.476-.008 7.055-5.726 12.77-12.78 12.78-.169 0-.336-.012-.504-.012l-1.63 1.646a14.8 14.8 0 0 0 2.134.155c1.792 0 3.568-.328 5.24-.972 7.502-2.887 11.243-11.31 8.355-18.812h-9.589l5.373-10.132Z"/></svg>
